src/assets/images/ServFarmIcon.svg

<?xml version="1.0" encoding="UTF-8" standalone="no"?><!-- Generator: Gravit.io --><svg xmlns="http://www.w3.org/2000/svg" xmlns:xlink="http://www.w3.org/1999/xlink" style="isolation:isolate" viewBox="0 0 400 300" width="400pt" height="300pt"><defs><clipPath id="_clipPath_a995Y5G3RA9m40Bz6vZaWJ8qDC6XHUY6"><rect width="400" height="300"/></clipPath></defs><g clip-path="url(#_clipPath_a995Y5G3RA9m40Bz6vZaWJ8qDC6XHUY6)"><path d=" M 205 271.43 L 350.3 188.62 C 353.507 186.79 355.496 183.391 355.521 179.7 C 355.546 176.008 353.602 172.582 350.42 170.71 L 214.75 91.05 C 210.219 88.392 204.609 88.373 200.06 91 L 50.15 177.55 C 46.618 179.588 44.455 183.369 44.488 187.447 C 44.521 191.525 46.745 195.269 50.31 197.25 L 184.1 271.55 C 190.609 275.166 198.533 275.12 205 271.43 L 205 271.43 Z " fill="rgb(40,43,78)"/><g opacity="0.68"><linearGradient id="_lgradient_0" x1="0" y1="0.5" x2="0.8762178365219342" y2="0.018084755417696885" gradientTransform="matrix(152.21,0,0,67.45,102.69,160.71)" gradientUnits="userSpaceOnUse"><stop offset="100%" stop-opacity="0" style="stop-color:rgb(241,90,36)"/><stop offset="100%" stop-opacity="0.02828054298642534" style="stop-color:rgb(241,90,36)"/></linearGradient><path d=" M 151.9 228.16 L 254.9 173.55 L 162.83 160.71 L 102.69 199.19 C 108.45 202.7 146.22 224.5 151.9 228.16 Z " fill="url(#_lgradient_0)"/></g><g opacity="0.68"><linearGradient id="_lgradient_1" x1="0" y1="0.5" x2="0.7750292799603921" y2="-0.13192532407245416" gradientTransform="matrix(82.56,0,0,43.05,242.44,179.79)" gradientUnits="userSpaceOnUse"><stop offset="100%" stop-opacity="0" style="stop-color:rgb(241,90,36)"/><stop offset="100%" stop-opacity="0.021317416329140897" style="stop-color:rgb(241,90,36)"/></linearGradient><path d=" M 275.47 222.84 L 325 196 L 286 179.79 L 242.44 207.03 C 248.26 210.59 269.79 219.18 275.47 222.84 Z " fill="url(#_lgradient_1)"/></g><path d=" M 214.54 126.41 C 213.88 124 210.73 124.12 208.97 125.1 C 208.714 125.234 208.518 125.458 208.42 125.73 C 207.01 126.84 206.05 128.56 206.77 130.38 C 207.64 132.57 210.26 132.82 212.14 131.79 C 214.054 130.736 215.035 128.538 214.54 126.41 L 214.54 126.41 Z  M 212.15 127.71 C 212.081 128.525 211.598 129.247 210.87 129.62 C 210.29 129.91 209.22 130.15 209.05 129.29 C 208.88 128.43 209.66 127.87 210.24 127.51 C 210.416 127.404 210.564 127.256 210.67 127.08 C 210.986 126.948 211.331 126.903 211.67 126.95 C 212.18 127 212.2 127.19 212.15 127.71 Z " fill="rgb(49,49,21)"/><path d=" M 105.47 67.93 C 105.268 67.934 105.101 68.089 105.081 68.29 C 105.06 68.491 105.193 68.675 105.39 68.72 C 105.592 68.716 105.759 68.561 105.779 68.36 C 105.8 68.159 105.667 67.975 105.47 67.93 L 105.47 67.93 Z " fill="rgb(28,80,40)"/><path d=" M 145.149 158.869 C 145.149 157.275 143.856 155.982 142.262 155.982 L 130.714 155.982 L 127.828 155.982 C 126.234 155.982 124.941 157.275 124.941 158.869 L 124.941 167.53 L 145.149 167.53 L 145.149 158.869 Z " fill="rgb(156,95,32)"/><path d=" M 231.756 184.851 L 254.851 184.851 L 254.851 196.399 L 231.756 196.399 L 231.756 184.851 Z " fill="rgb(176,37,37)"/><path d=" M 168.244 158.869 L 168.244 167.53 L 188.452 167.53 L 188.452 158.869 C 188.452 157.275 187.159 155.982 185.566 155.982 L 182.679 155.982 L 171.131 155.982 C 169.537 155.982 168.244 157.275 168.244 158.869 Z " fill="rgb(156,95,32)"/><path d=" M 145.149 158.869 L 145.149 167.53 L 168.244 167.53 L 168.244 158.869 C 168.244 157.275 169.537 155.982 171.131 155.982 L 182.679 155.982 L 182.679 109.792 L 130.714 109.792 L 130.714 155.982 L 142.262 155.982 C 143.856 155.982 145.149 157.275 145.149 158.869 Z " fill="rgb(208,210,234)"/><path d=" M 211.548 184.851 L 231.756 184.851 L 231.756 196.399 L 211.548 196.399 L 211.548 184.851 Z " fill="rgb(128,78,26)"/><path d=" M 168.244 184.851 L 188.452 184.851 L 188.452 196.399 L 168.244 196.399 L 168.244 184.851 Z " fill="rgb(128,78,26)"/><path d=" M 209.29 78.036 C 200.577 78.036 193.681 85.406 194.261 94.101 L 195.087 101.131 L 202.887 167.53 L 211.548 167.53 L 211.548 158.869 C 211.548 157.275 212.841 155.982 214.434 155.982 L 223.095 155.982 L 224.342 93.68 C 224.671 85.138 217.838 78.036 209.29 78.036 Z " fill="rgb(237,142,54)"/><path d=" M 182.679 98.107 C 182.679 91.32 180.669 84.686 176.905 79.036 C 173.14 73.389 171.131 66.752 171.131 59.965 L 171.131 58.828 L 142.262 58.828 L 142.262 59.965 C 142.262 66.752 140.253 73.386 136.488 79.036 C 132.724 84.683 130.714 91.32 130.714 98.107 L 130.714 110.792 L 182.679 110.792 L 182.679 98.107 Z " fill="rgb(194,197,232)"/><path d=" M 211.548 158.869 L 211.548 167.53 L 231.756 167.53 L 231.756 158.869 C 231.756 157.275 230.463 155.982 228.869 155.982 L 225.982 155.982 L 223.095 155.982 L 214.434 155.982 C 212.841 155.982 211.548 157.275 211.548 158.869 Z " fill="rgb(156,95,32)"/><path d=" M 124.941 184.851 L 145.149 184.851 L 145.149 196.399 L 124.941 196.399 L 124.941 184.851 Z " fill="rgb(128,78,26)"/><path d=" M 249.077 132.887 C 247.804 132.887 246.563 133.017 245.344 133.216 C 234.369 135.003 225.982 144.501 225.982 155.982 L 228.869 155.982 C 230.463 155.982 231.756 157.275 231.756 158.869 L 231.756 167.53 L 254.851 167.53 L 254.851 158.869 C 254.851 157.275 256.144 155.982 257.738 155.982 L 272.172 155.982 C 272.172 143.228 261.832 132.887 249.077 132.887 Z " fill="rgb(193,41,41)"/><path d=" M 254.851 158.869 L 254.851 167.53 L 275.059 167.53 L 275.059 158.869 C 275.059 157.275 273.766 155.982 272.172 155.982 L 257.738 155.982 C 256.144 155.982 254.851 157.275 254.851 158.869 Z " fill="rgb(156,95,32)"/><path d=" M 145.149 184.851 L 168.244 184.851 L 168.244 196.399 L 145.149 196.399 L 145.149 184.851 Z " fill="rgb(239,239,239)"/><path d=" M 254.851 184.851 L 275.059 184.851 L 275.059 196.399 L 254.851 196.399 L 254.851 184.851 Z " fill="rgb(128,78,26)"/><path d=" M 188.452 184.851 L 211.548 184.851 L 211.548 196.399 L 188.452 196.399 L 188.452 184.851 Z " fill="rgb(222,119,24)"/><path d=" M 280.833 167.53 L 275.059 167.53 L 254.851 167.53 L 231.756 167.53 L 211.548 167.53 L 202.887 167.53 L 188.452 167.53 L 168.244 167.53 L 145.149 167.53 L 124.941 167.53 L 119.167 167.53 C 117.573 167.53 116.28 168.823 116.28 170.417 L 116.28 181.964 C 116.28 183.558 117.573 184.851 119.167 184.851 L 124.941 184.851 L 145.149 184.851 L 168.244 184.851 L 188.452 184.851 L 211.548 184.851 L 231.756 184.851 L 254.851 184.851 L 275.059 184.851 L 280.833 184.851 C 282.427 184.851 283.72 183.558 283.72 181.964 L 283.72 170.417 C 283.72 168.823 282.427 167.53 280.833 167.53 Z " fill="rgb(229,119,10)"/><path d=" M 280.833 196.399 L 275.059 196.399 L 254.851 196.399 L 231.756 196.399 L 211.548 196.399 L 188.452 196.399 L 168.244 196.399 L 145.149 196.399 L 124.941 196.399 L 119.167 196.399 C 117.573 196.399 116.28 197.692 116.28 199.286 L 116.28 210.833 C 116.28 212.427 117.573 213.72 119.167 213.72 L 280.833 213.72 C 282.427 213.72 283.72 212.427 283.72 210.833 L 283.72 199.286 C 283.72 197.692 282.427 196.399 280.833 196.399 Z " fill="rgb(195,103,10)"/><path d=" M 174.018 58.828 C 175.611 58.828 176.905 57.534 176.905 55.941 L 176.905 50.167 C 176.905 48.573 175.611 47.28 174.018 47.28 L 139.375 47.28 C 137.782 47.28 136.488 48.573 136.488 50.167 L 136.488 55.941 C 136.488 57.534 137.782 58.828 139.375 58.828 L 142.262 58.828 L 171.131 58.828 L 174.018 58.828 Z " fill="rgb(40,43,78)"/><path d=" M 268.249 46.28 L 232.636 46.28 C 229.478 46.28 226.36 47.016 223.534 48.428 C 212.636 53.878 205.312 69.205 208.661 80.923 L 211.614 66.078 C 211.955 64.032 215.179 61.306 217.148 61.965 L 217.154 61.967 C 220.226 62.992 223.603 62.444 226.196 60.501 L 228.728 58.601 C 231.718 56.358 235.717 55.997 239.06 57.669 L 240.74 58.509 C 243.517 59.897 246.788 59.897 249.565 58.509 L 252.207 57.19 C 254.923 55.83 258.197 55.596 260.876 57.025 C 265.082 59.271 270.27 58.188 273.232 54.487 L 279.797 46.28 L 268.249 46.28 Z " fill="rgb(148,176,32)"/><path d=" M 280.833 207.946 L 119.167 207.946 C 117.573 207.946 116.28 206.653 116.28 205.059 L 116.28 210.833 C 116.28 212.427 117.573 213.72 119.167 213.72 L 280.833 213.72 C 282.427 213.72 283.72 212.427 283.72 210.833 L 283.72 205.059 C 283.72 206.653 282.427 207.946 280.833 207.946 Z " fill="rgb(229,119,10)"/><path d=" M 280.833 179.077 L 275.059 179.077 L 254.851 179.077 L 231.756 179.077 L 211.548 179.077 L 188.452 179.077 L 168.244 179.077 L 145.149 179.077 L 124.941 179.077 L 119.167 179.077 C 117.573 179.077 116.28 177.784 116.28 176.19 L 116.28 181.964 C 116.28 183.558 117.573 184.851 119.167 184.851 L 124.941 184.851 L 145.149 184.851 L 168.244 184.851 L 188.452 184.851 L 211.548 184.851 L 231.756 184.851 L 254.851 184.851 L 275.059 184.851 L 280.833 184.851 C 282.427 184.851 283.72 183.558 283.72 181.964 L 283.72 176.19 C 283.72 177.784 282.427 179.077 280.833 179.077 Z " fill="rgb(195,103,10)"/><path d=" M 249.077 161.756 C 239.392 161.756 231.109 155.786 227.68 147.33 C 226.594 150.003 225.982 152.919 225.982 155.982 L 228.869 155.982 C 230.463 155.982 231.756 157.275 231.756 158.869 L 231.756 167.53 L 254.851 167.53 L 254.851 160.999 C 253.003 161.476 251.075 161.756 249.077 161.756 Z " fill="rgb(176,37,37)"/><path d=" M 264.317 155.982 L 272.172 155.982 C 272.172 152.916 271.563 149.998 270.478 147.321 C 269.118 150.676 266.99 153.629 264.317 155.982 Z " fill="rgb(176,37,37)"/><path d=" M 211.652 158.358 C 208.438 160.353 205.225 161.727 202.315 162.651 L 202.887 167.53 L 211.548 167.53 L 211.548 158.869 C 211.548 158.687 211.62 158.528 211.652 158.358 Z " fill="rgb(222,119,24)"/><path d=" M 223.274 147.073 C 223.214 147.16 223.153 147.235 223.095 147.321 C 220.702 150.913 217.928 153.725 215.047 155.982 L 223.095 155.982 L 223.274 147.073 Z " fill="rgb(222,119,24)"/><path d=" M 168.244 158.869 C 168.244 157.275 169.537 155.982 171.131 155.982 L 182.679 155.982 L 182.679 138.727 C 177.404 146.323 168.943 157.625 159.096 167.53 L 168.244 167.53 L 168.244 158.869 Z " fill="rgb(239,239,239)"/><path d=" M 246.603 143.034 L 245.368 140.976 C 240.249 132.448 240.798 121.793 246.768 113.836 L 251.387 117.298 C 246.834 123.372 246.413 131.498 250.319 138.005 L 251.554 140.064 L 246.603 143.034 Z " fill="rgb(148,176,32)"/><g><path d=" M 208.661 104.018 L 202.887 104.018 C 201.293 104.018 200 102.725 200 101.131 C 200 99.537 201.293 98.244 202.887 98.244 L 208.661 98.244 C 210.254 98.244 211.548 99.537 211.548 101.131 C 211.548 102.725 210.254 104.018 208.661 104.018 Z " fill="rgb(222,119,24)"/><path d=" M 214.434 115.566 L 208.661 115.566 C 207.067 115.566 205.774 114.272 205.774 112.679 C 205.774 111.085 207.067 109.792 208.661 109.792 L 214.434 109.792 C 216.028 109.792 217.321 111.085 217.321 112.679 C 217.321 114.272 216.028 115.566 214.434 115.566 Z " fill="rgb(222,119,24)"/><path d=" M 208.661 132.887 L 202.887 132.887 C 201.293 132.887 200 131.594 200 130 C 200 128.406 201.293 127.113 202.887 127.113 L 208.661 127.113 C 210.254 127.113 211.548 128.406 211.548 130 C 211.548 131.594 210.254 132.887 208.661 132.887 Z " fill="rgb(222,119,24)"/><path d=" M 220.208 141.548 L 214.434 141.548 C 212.841 141.548 211.548 140.254 211.548 138.661 C 211.548 137.067 212.841 135.774 214.434 135.774 L 220.208 135.774 C 221.802 135.774 223.095 137.067 223.095 138.661 C 223.095 140.254 221.802 141.548 220.208 141.548 Z " fill="rgb(222,119,24)"/></g><path d=" M 130.714 179.077 C 129.121 179.077 127.828 177.784 127.828 176.19 C 127.828 174.597 129.121 173.303 130.714 173.303 C 132.308 173.303 133.601 174.597 133.601 176.19 C 133.601 177.784 132.308 179.077 130.714 179.077 Z " fill="rgb(196,196,196)"/><path d=" M 130.714 207.946 C 129.121 207.946 127.828 206.653 127.828 205.059 C 127.828 203.466 129.121 202.172 130.714 202.172 C 132.308 202.172 133.601 203.466 133.601 205.059 C 133.601 206.653 132.308 207.946 130.714 207.946 Z " fill="rgb(196,196,196)"/><path d=" M 269.286 179.077 C 267.692 179.077 266.399 177.784 266.399 176.19 C 266.399 174.597 267.692 173.303 269.286 173.303 C 270.879 173.303 272.172 174.597 272.172 176.19 C 272.172 177.784 270.879 179.077 269.286 179.077 Z " fill="rgb(196,196,196)"/><path d=" M 269.286 207.946 C 267.692 207.946 266.399 206.653 266.399 205.059 C 266.399 203.466 267.692 202.172 269.286 202.172 C 270.879 202.172 272.172 203.466 272.172 205.059 C 272.172 206.653 270.879 207.946 269.286 207.946 Z " fill="rgb(196,196,196)"/></g></svg>

<?xml version="1.0" encoding="utf-8"?>
<!-- Generator: Adobe Illustrator 24.0.1, SVG Export Plug-In . SVG Version: 6.00 Build 0)  -->
<svg version="1.1" id="Layer_1" xmlns="http://www.w3.org/2000/svg" xmlns:xlink="http://www.w3.org/1999/xlink" x="0px" y="0px"
	 viewBox="0 0 400 300" style="enable-background:new 0 0 400 300;" xml:space="preserve">
<style type="text/css">
	.st0{clip-path:url(#SVGID_2_);}
	.st1{fill:#282B4E;}
	.st2{opacity:0.68;}
	.st3{fill:url(#SVGID_3_);}
	.st4{fill:url(#SVGID_4_);}
	.st5{fill:#313115;}
	.st6{fill:#1C5028;}
	.st7{fill:#9C5F20;}
	.st8{fill:#B02525;}
	.st9{fill:#D0D2EA;}
	.st10{fill:#804E1A;}
	.st11{fill:#ED8E36;}
	.st12{fill:#C2C5E8;}
	.st13{fill:#C12929;}
	.st14{fill:#EFEFEF;}
	.st15{fill:#DE7718;}
	.st16{fill:url(#SVGID_5_);}
	.st17{fill:url(#SVGID_6_);}
	.st18{fill:#94B020;}
	.st19{fill:url(#SVGID_7_);}
	.st20{fill:url(#SVGID_8_);}
	.st21{fill:#C4C4C4;}
</style>
<g>
	<defs>
		<rect id="SVGID_1_" width="400" height="300"/>
	</defs>
	<clipPath id="SVGID_2_">
		<use xlink:href="#SVGID_1_"  style="overflow:visible;"/>
	</clipPath>
	<g class="st0">
		<path class="st1" d="M205,271.4l145.3-82.8c3.2-1.8,5.2-5.2,5.2-8.9c0-3.7-1.9-7.1-5.1-9L214.8,91.1c-4.5-2.7-10.1-2.7-14.7-0.1
			L50.2,177.6c-3.5,2-5.7,5.8-5.7,9.9c0,4.1,2.3,7.8,5.8,9.8l133.8,74.3C190.6,275.2,198.5,275.1,205,271.4L205,271.4z"/>
		<g class="st2">
			
				<linearGradient id="SVGID_3_" gradientUnits="userSpaceOnUse" x1="8.342320e-02" y1="299.3483" x2="0.9596" y2="299.8302" gradientTransform="matrix(152.21 0 0 -67.45 102.69 20395.709)">
				<stop  offset="1" style="stop-color:#F15A24;stop-opacity:0"/>
				<stop  offset="1" style="stop-color:#F15A24;stop-opacity:2.828054e-02"/>
			</linearGradient>
			<path class="st3" d="M151.9,228.2l103-54.6l-92.1-12.8l-60.1,38.5C108.4,202.7,146.2,224.5,151.9,228.2z"/>
		</g>
		<g class="st2">
			
				<linearGradient id="SVGID_4_" gradientUnits="userSpaceOnUse" x1="0.1852" y1="299.2728" x2="0.9603" y2="299.9048" gradientTransform="matrix(82.56 0 0 -43.05 242.44 13094.79)">
				<stop  offset="1" style="stop-color:#F15A24;stop-opacity:0"/>
				<stop  offset="1" style="stop-color:#F15A24;stop-opacity:2.131742e-02"/>
			</linearGradient>
			<path class="st4" d="M275.5,222.8L325,196l-39-16.2L242.4,207C248.3,210.6,269.8,219.2,275.5,222.8z"/>
		</g>
		<path class="st5" d="M214.5,126.4c-0.7-2.4-3.8-2.3-5.6-1.3c-0.3,0.1-0.5,0.4-0.6,0.6c-1.4,1.1-2.4,2.8-1.6,4.7
			c0.9,2.2,3.5,2.4,5.4,1.4C214.1,130.7,215,128.5,214.5,126.4L214.5,126.4z M212.1,127.7c-0.1,0.8-0.6,1.5-1.3,1.9
			c-0.6,0.3-1.6,0.5-1.8-0.3s0.6-1.4,1.2-1.8c0.2-0.1,0.3-0.3,0.4-0.4c0.3-0.1,0.7-0.2,1-0.1C212.2,127,212.2,127.2,212.1,127.7z"/>
		<path class="st6" d="M105.5,67.9c-0.2,0-0.4,0.2-0.4,0.4c0,0.2,0.1,0.4,0.3,0.4c0.2,0,0.4-0.2,0.4-0.4
			C105.8,68.2,105.7,68,105.5,67.9L105.5,67.9z"/>
		<path class="st7" d="M145.1,158.9c0-1.6-1.3-2.9-2.9-2.9h-11.5h-2.9c-1.6,0-2.9,1.3-2.9,2.9v8.7h20.2V158.9z"/>
		<path class="st8" d="M231.8,184.9h23.1v11.5h-23.1V184.9z"/>
		<path class="st7" d="M168.2,158.9v8.7h20.2v-8.7c0-1.6-1.3-2.9-2.9-2.9h-2.9h-11.5C169.5,156,168.2,157.3,168.2,158.9z"/>
		<path class="st9" d="M145.1,158.9v8.7h23.1v-8.7c0-1.6,1.3-2.9,2.9-2.9h11.5v-46.2h-52V156h11.5
			C143.9,156,145.1,157.3,145.1,158.9z"/>
		<path class="st10" d="M211.5,184.9h20.2v11.5h-20.2V184.9z"/>
		<path class="st10" d="M168.2,184.9h20.2v11.5h-20.2V184.9z"/>
		<path class="st11" d="M209.3,78c-8.7,0-15.6,7.4-15,16.1l0.8,7l7.8,66.4h8.7v-8.7c0-1.6,1.3-2.9,2.9-2.9h8.7l1.2-62.3
			C224.7,85.1,217.8,78,209.3,78z"/>
		<path class="st12" d="M182.7,98.1c0-6.8-2-13.4-5.8-19.1c-3.8-5.6-5.8-12.3-5.8-19.1v-1.1h-28.9V60c0,6.8-2,13.4-5.8,19.1
			c-3.8,5.6-5.8,12.3-5.8,19.1v12.7h52V98.1z"/>
		<path class="st7" d="M211.5,158.9v8.7h20.2v-8.7c0-1.6-1.3-2.9-2.9-2.9H226h-2.9h-8.7C212.8,156,211.5,157.3,211.5,158.9z"/>
		<path class="st10" d="M124.9,184.9h20.2v11.5h-20.2V184.9z"/>
		<path class="st13" d="M249.1,132.9c-1.3,0-2.5,0.1-3.7,0.3c-11,1.8-19.4,11.3-19.4,22.8h2.9c1.6,0,2.9,1.3,2.9,2.9v8.7h23.1v-8.7
			c0-1.6,1.3-2.9,2.9-2.9h14.4C272.2,143.2,261.8,132.9,249.1,132.9z"/>
		<path class="st7" d="M254.9,158.9v8.7h20.2v-8.7c0-1.6-1.3-2.9-2.9-2.9h-14.4C256.1,156,254.9,157.3,254.9,158.9z"/>
		<path class="st14" d="M145.1,184.9h23.1v11.5h-23.1V184.9z"/>
		<path class="st10" d="M254.9,184.9h20.2v11.5h-20.2V184.9z"/>
		<path class="st15" d="M188.5,184.9h23.1v11.5h-23.1V184.9z"/>
		<linearGradient id="SVGID_5_" gradientUnits="userSpaceOnUse" x1="116.28" y1="176.1905" x2="283.72" y2="176.1905">
			<stop  offset="0" style="stop-color:#F5524E"/>
			<stop  offset="1" style="stop-color:#D0342F"/>
		</linearGradient>
		<path class="st16" d="M280.8,167.5h-5.8h-20.2h-23.1h-20.2h-8.7h-14.4h-20.2h-23.1h-20.2h-5.8c-1.6,0-2.9,1.3-2.9,2.9V182
			c0,1.6,1.3,2.9,2.9,2.9h5.8h20.2h23.1h20.2h23.1h20.2h23.1h20.2h5.8c1.6,0,2.9-1.3,2.9-2.9v-11.5
			C283.7,168.8,282.4,167.5,280.8,167.5z"/>
		<linearGradient id="SVGID_6_" gradientUnits="userSpaceOnUse" x1="116.28" y1="205.0595" x2="283.72" y2="205.0595">
			<stop  offset="0" style="stop-color:#F5524E"/>
			<stop  offset="1" style="stop-color:#D0342F"/>
		</linearGradient>
		<path class="st17" d="M280.8,196.4h-5.8h-20.2h-23.1h-20.2h-23.1h-20.2h-23.1h-20.2h-5.8c-1.6,0-2.9,1.3-2.9,2.9v11.5
			c0,1.6,1.3,2.9,2.9,2.9h161.7c1.6,0,2.9-1.3,2.9-2.9v-11.5C283.7,197.7,282.4,196.4,280.8,196.4z"/>
		<path class="st1" d="M174,58.8c1.6,0,2.9-1.3,2.9-2.9v-5.8c0-1.6-1.3-2.9-2.9-2.9h-34.6c-1.6,0-2.9,1.3-2.9,2.9v5.8
			c0,1.6,1.3,2.9,2.9,2.9h2.9h28.9H174z"/>
		<path class="st18" d="M268.2,46.3h-35.6c-3.2,0-6.3,0.7-9.1,2.1c-10.9,5.4-18.2,20.8-14.9,32.5l3-14.8c0.3-2,3.6-4.8,5.5-4.1l0,0
			c3.1,1,6.4,0.5,9-1.5l2.5-1.9c3-2.2,7-2.6,10.3-0.9l1.7,0.8c2.8,1.4,6,1.4,8.8,0l2.6-1.3c2.7-1.4,6-1.6,8.7-0.2
			c4.2,2.2,9.4,1.2,12.4-2.5l6.6-8.2H268.2z"/>
		<linearGradient id="SVGID_7_" gradientUnits="userSpaceOnUse" x1="116.28" y1="209.3895" x2="283.72" y2="209.3895">
			<stop  offset="0" style="stop-color:#F5524E"/>
			<stop  offset="1" style="stop-color:#D0342F"/>
		</linearGradient>
		<path class="st19" d="M280.8,207.9H119.2c-1.6,0-2.9-1.3-2.9-2.9v5.8c0,1.6,1.3,2.9,2.9,2.9h161.7c1.6,0,2.9-1.3,2.9-2.9v-5.8
			C283.7,206.7,282.4,207.9,280.8,207.9z"/>
		<linearGradient id="SVGID_8_" gradientUnits="userSpaceOnUse" x1="116.28" y1="180.5205" x2="283.72" y2="180.5205">
			<stop  offset="0" style="stop-color:#F5524E"/>
			<stop  offset="1" style="stop-color:#D0342F"/>
		</linearGradient>
		<path class="st20" d="M280.8,179.1h-5.8h-20.2h-23.1h-20.2h-23.1h-20.2h-23.1h-20.2h-5.8c-1.6,0-2.9-1.3-2.9-2.9v5.8
			c0,1.6,1.3,2.9,2.9,2.9h5.8h20.2h23.1h20.2h23.1h20.2h23.1h20.2h5.8c1.6,0,2.9-1.3,2.9-2.9v-5.8
			C283.7,177.8,282.4,179.1,280.8,179.1z"/>
		<path class="st8" d="M249.1,161.8c-9.7,0-18-6-21.4-14.4c-1.1,2.7-1.7,5.6-1.7,8.7h2.9c1.6,0,2.9,1.3,2.9,2.9v8.7h23.1V161
			C253,161.5,251.1,161.8,249.1,161.8z"/>
		<path class="st8" d="M264.3,156h7.9c0-3.1-0.6-6-1.7-8.7C269.1,150.7,267,153.6,264.3,156z"/>
		<path class="st15" d="M211.7,158.4c-3.2,2-6.4,3.4-9.3,4.3l0.6,4.9h8.7v-8.7C211.5,158.7,211.6,158.5,211.7,158.4z"/>
		<path class="st15" d="M223.3,147.1c-0.1,0.1-0.1,0.2-0.2,0.2c-2.4,3.6-5.2,6.4-8,8.7h8L223.3,147.1z"/>
		<path class="st14" d="M168.2,158.9c0-1.6,1.3-2.9,2.9-2.9h11.5v-17.3c-5.3,7.6-13.7,18.9-23.6,28.8h9.1V158.9z"/>
		<path class="st18" d="M246.6,143l-1.2-2.1c-5.1-8.5-4.6-19.2,1.4-27.1l4.6,3.5c-4.6,6.1-5,14.2-1.1,20.7l1.2,2.1L246.6,143z"/>
		<g>
			<path class="st15" d="M208.7,104h-5.8c-1.6,0-2.9-1.3-2.9-2.9c0-1.6,1.3-2.9,2.9-2.9h5.8c1.6,0,2.9,1.3,2.9,2.9
				C211.5,102.7,210.3,104,208.7,104z"/>
			<path class="st15" d="M214.4,115.6h-5.8c-1.6,0-2.9-1.3-2.9-2.9c0-1.6,1.3-2.9,2.9-2.9h5.8c1.6,0,2.9,1.3,2.9,2.9
				C217.3,114.3,216,115.6,214.4,115.6z"/>
			<path class="st15" d="M208.7,132.9h-5.8c-1.6,0-2.9-1.3-2.9-2.9s1.3-2.9,2.9-2.9h5.8c1.6,0,2.9,1.3,2.9,2.9
				S210.3,132.9,208.7,132.9z"/>
			<path class="st15" d="M220.2,141.5h-5.8c-1.6,0-2.9-1.3-2.9-2.9c0-1.6,1.3-2.9,2.9-2.9h5.8c1.6,0,2.9,1.3,2.9,2.9
				C223.1,140.3,221.8,141.5,220.2,141.5z"/>
		</g>
		<path class="st21" d="M130.7,179.1c-1.6,0-2.9-1.3-2.9-2.9c0-1.6,1.3-2.9,2.9-2.9c1.6,0,2.9,1.3,2.9,2.9
			C133.6,177.8,132.3,179.1,130.7,179.1z"/>
		<path class="st21" d="M130.7,207.9c-1.6,0-2.9-1.3-2.9-2.9c0-1.6,1.3-2.9,2.9-2.9c1.6,0,2.9,1.3,2.9,2.9
			C133.6,206.7,132.3,207.9,130.7,207.9z"/>
		<path class="st21" d="M269.3,179.1c-1.6,0-2.9-1.3-2.9-2.9c0-1.6,1.3-2.9,2.9-2.9c1.6,0,2.9,1.3,2.9,2.9
			C272.2,177.8,270.9,179.1,269.3,179.1z"/>
		<path class="st21" d="M269.3,207.9c-1.6,0-2.9-1.3-2.9-2.9c0-1.6,1.3-2.9,2.9-2.9c1.6,0,2.9,1.3,2.9,2.9
			C272.2,206.7,270.9,207.9,269.3,207.9z"/>
	</g>
</g>
</svg>
